cartflows/admin-core/assets/images/plugins/suretriggers/trusted-brands/BB_Logo.svg

<svg width="101" height="24" viewBox="0 0 101 24" fill="none" xmlns="http://www.w3.org/2000/svg">
<g clip-path="url(#clip0_4393_128335)">
<path d="M23 12C23 18.6275 17.8514 24 11.5 24C5.14861 24 0 18.6275 0 12C0 5.37247 5.14812 0 11.5 0C17.8519 0 23 5.37247 23 12Z" fill="#4B5563"/>
<path d="M14.1091 7.67022C13.4853 7.66998 12.8674 7.79196 12.289 8.02949L12.371 7.57714C12.371 7.57714 12.9243 5.14612 10.6571 5C10.4764 5 10.42 5.09645 10.3963 5.2228L9.95253 7.67166C9.35105 7.67942 8.75622 7.80076 8.19831 8.02949L8.28033 7.57714C8.28033 7.57714 8.83267 5.14757 6.56498 5.00145C6.38529 5.00145 6.32792 5.0979 6.30517 5.22232L5.09191 11.9155C5.03536 12.2187 5.00474 12.5264 5.0004 12.8351C4.96579 15.6804 7.15905 18 9.88995 18C12.6208 18 14.8719 15.6828 14.9094 12.8351C14.9189 12.0669 14.7354 11.548 14.4097 11.2437C13.9721 10.8371 13.2054 10.9177 12.8366 11.4202C12.4952 11.8846 12.5474 12.5949 12.544 12.8337C12.5368 13.4299 12.3395 14.0076 11.9817 14.4801C11.6349 14.0044 11.4516 13.4258 11.4602 12.8337C11.4787 11.3454 12.6545 10.1331 14.0816 10.1331C15.5087 10.1331 16.6546 11.3435 16.6366 12.8337C16.6314 13.2923 16.5138 13.7423 16.2943 14.1429C16.0748 14.5435 15.7604 14.882 15.3797 15.1277C15.2738 15.1909 15.1767 15.2683 15.091 15.3578C15.0191 15.4465 14.9579 15.5437 14.9085 15.6471C14.4724 16.4651 13.8557 17.169 13.1068 17.7034C13.0646 17.7338 12.9892 17.7917 13.012 17.851C13.0348 17.9103 13.1542 17.9257 13.2078 17.9344C13.464 17.9775 13.7233 17.9991 13.983 17.999C16.7139 17.999 18.9645 15.6818 18.9996 12.8341C19.0347 9.98646 16.8405 7.67022 14.1091 7.67022ZM7.36576 12.8351C7.38188 11.5215 8.30024 10.4239 9.49928 10.1861L9.18541 11.9155C9.1291 12.2188 9.09848 12.5265 9.09391 12.8351C9.07973 13.78 9.3201 14.7107 9.78896 15.5265C8.42304 15.4532 7.34775 14.2761 7.36576 12.8351Z" fill="white"/>
<path d="M35.769 14.2608C35.6117 16.0169 34.3612 17.2547 32.3637 17.2547C30.8975 17.2547 29.762 16.6358 29.3446 16.3475C29.0861 16.1749 29 15.9879 29 15.6712V7.79765C29 7.23605 29.4168 6.80469 29.9632 6.80469C30.4951 6.80469 30.9258 7.23605 30.9258 7.79765V9.6973C31.3571 9.51084 32.0469 9.33774 32.6221 9.33774C34.5207 9.33774 35.6023 10.491 35.769 12.2721C35.8136 12.9343 35.8136 13.5987 35.769 14.2608ZM33.8438 12.591C33.7882 11.7005 33.3547 11.1806 32.4354 11.1806C31.8029 11.1806 31.1704 11.4105 30.9258 11.5702V14.9655C31.1559 15.1669 31.8029 15.4107 32.3203 15.4107C33.2541 15.4107 33.7721 14.8781 33.8438 13.9424C33.8749 13.555 33.8604 12.9077 33.8454 12.591H33.8438Z" fill="#4B5563"/>
<path d="M37.4603 10.4047C37.4603 9.82864 37.8054 9.38281 38.4096 9.38281C38.9554 9.38281 39.3861 9.82809 39.3861 10.4047V14.0782C39.3861 14.9415 39.9469 15.4168 40.7667 15.4168C41.2618 15.4253 41.7494 15.2956 42.1751 15.0422V10.3758C42.1751 9.82864 42.5769 9.38281 43.1388 9.38281C43.6702 9.38281 44.1009 9.82809 44.1009 10.3758V15.7591C44.1009 16.0903 44.0148 16.2773 43.7558 16.436C43.3111 16.7527 42.2618 17.2564 40.7239 17.2564C38.6536 17.2564 37.4603 16.1337 37.4603 14.1044V10.4047Z" fill="#4B5563"/>
<path d="M49.0153 9.33774C49.59 9.33774 50.2797 9.51084 50.7116 9.6973V7.79765C50.7116 7.23605 51.1423 6.80469 51.6742 6.80469C52.2205 6.80469 52.6374 7.23605 52.6374 7.79765V15.6857C52.6374 16.0024 52.5512 16.1894 52.2922 16.3625C51.8898 16.6503 50.7399 17.2531 49.2732 17.2531C47.2756 17.2531 46.0256 16.0152 45.8672 14.2591C45.8244 13.5975 45.8244 12.9338 45.8672 12.2721C46.0256 10.491 47.1183 9.33774 49.0153 9.33774ZM49.3171 15.4124C49.8173 15.4124 50.4842 15.1675 50.7116 14.9671V11.5719C50.4665 11.4133 49.8345 11.1823 49.202 11.1823C48.2816 11.1823 47.8509 11.6999 47.7931 12.5782C47.7647 13.0433 47.7647 13.5097 47.7931 13.9747C47.8509 14.9081 48.3856 15.4124 49.3171 15.4124Z" fill="#4B5563"/>
<path d="M57.5918 9.33774C58.1671 9.33774 58.8563 9.51084 59.2881 9.6973V7.79765C59.2881 7.23605 59.7194 6.80469 60.2508 6.80469C60.7977 6.80469 61.2145 7.23605 61.2145 7.79765V15.6857C61.2145 16.0024 61.1289 16.1894 60.8688 16.3625C60.4664 16.6503 59.317 17.2531 57.8508 17.2531C55.8533 17.2531 54.6022 16.0152 54.4449 14.2591C54.401 13.5975 54.401 12.9337 54.4449 12.2721C54.6022 10.491 55.6949 9.33774 57.5918 9.33774ZM57.8936 15.4124C58.3972 15.4124 59.0608 15.1675 59.2881 14.9671V11.5719C59.0436 11.4133 58.4116 11.1823 57.7797 11.1823C56.8587 11.1823 56.428 11.6999 56.3708 12.5782C56.3413 13.0433 56.3413 13.5097 56.3708 13.9747C56.428 14.9081 56.9593 15.4124 57.8936 15.4124Z" fill="#4B5563"/>
<path d="M62.6551 10.7926C62.3383 10.059 62.8563 9.36719 63.5755 9.36719C64.0201 9.36719 64.3797 9.61265 64.5665 10.1164L66.1477 14.2045C66.1766 14.2763 66.2033 14.2903 66.2339 14.2903C66.2644 14.2903 66.2895 14.2903 66.32 14.2045L67.8146 10.1164C67.9869 9.64159 68.347 9.36719 68.8072 9.36719C69.5536 9.36719 70.0422 10.0874 69.7265 10.8071L67.0387 17.0688C66.4351 18.4786 65.6736 19.3859 65.1273 19.7454C64.9111 19.8896 64.6093 20.0193 64.3369 20.0193C63.8195 20.0193 63.3732 19.6736 63.3732 19.1126C63.3732 18.7814 63.5316 18.5365 63.805 18.3333C64.2363 18.0311 64.7966 17.484 65.1273 16.5628L62.6551 10.7926Z" fill="#4B5563"/>
<path d="M77.9156 14.2608C77.7577 16.0169 76.5066 17.2547 74.5091 17.2547C73.0435 17.2547 71.9074 16.6358 71.4911 16.3475C71.2321 16.1749 71.146 15.9879 71.146 15.6712V7.79765C71.146 7.23605 71.5628 6.80469 72.1092 6.80469C72.64 6.80469 73.0718 7.23605 73.0718 7.79765V9.6973C73.5031 9.51084 74.1923 9.33774 74.7676 9.33774C76.6651 9.33774 77.7439 10.4893 77.9156 12.2738C77.9584 12.9354 77.9584 13.5992 77.9156 14.2608ZM75.9892 12.591C75.9336 11.7005 75.5007 11.1806 74.5808 11.1806C73.9483 11.1806 73.3158 11.4105 73.0718 11.5702V14.9655C73.3019 15.1669 73.9483 15.4107 74.4663 15.4107C75.4006 15.4107 75.9175 14.8781 75.9892 13.9424C76.0187 13.555 76.0037 12.9077 75.9892 12.591Z" fill="#4B5563"/>
<path d="M82.9089 17.254C81.0264 17.254 79.6036 16.0446 79.4591 14.3314C79.4157 13.6456 79.4157 12.9577 79.4591 12.272C79.6036 10.5465 81.0264 9.33594 82.9089 9.33594C84.8058 9.33594 86.2003 10.5454 86.3443 12.272C86.3876 12.9527 86.3876 13.6356 86.3443 14.3163C86.2003 16.0446 84.8058 17.254 82.9089 17.254ZM84.4329 12.5786C84.3895 11.7582 83.8148 11.1827 82.9089 11.1827C82.0029 11.1827 81.4433 11.7582 81.3704 12.5786C81.3427 13.058 81.3427 13.5386 81.3704 14.018C81.4433 14.8384 82.0035 15.4145 82.9089 15.4145C83.8143 15.4145 84.3751 14.8384 84.4329 14.018C84.4613 13.5377 84.4613 13.0562 84.4329 12.5759V12.5786Z" fill="#4B5563"/>
<path d="M93.7002 14.7482C93.7002 16.3624 92.3663 17.2529 90.6989 17.2529C89.3477 17.2529 88.4857 16.8633 87.9532 16.418C87.6086 16.1303 87.5086 15.5831 87.7815 15.223C88.0683 14.8334 88.5596 14.7477 89.0309 15.0505C89.5443 15.3695 90.1381 15.5344 90.7422 15.5258C91.4898 15.5258 91.8344 15.252 91.8344 14.8635C91.8344 14.5468 91.6037 14.3302 91.0007 14.1866C90.4827 14.072 90.5004 14.0865 89.9369 13.9423C88.7586 13.6401 87.8387 12.9777 87.8387 11.7399C87.8387 10.1853 89.0882 9.33594 90.7706 9.33594C91.676 9.33594 92.6097 9.56637 93.1132 9.98381C93.5301 10.3295 93.5023 10.9194 93.1994 11.264C92.9121 11.5801 92.4213 11.6241 91.9494 11.3786C91.5754 11.1916 91.0724 11.0619 90.6983 11.0619C89.9797 11.0619 89.6784 11.3358 89.6784 11.6809C89.6784 11.9836 89.8935 12.1851 90.5399 12.3287L91.5609 12.5592C92.9965 12.9065 93.7002 13.6117 93.7002 14.7482Z" fill="#4B5563"/>
<path d="M101 14.7482C101 16.3624 99.6633 17.2529 97.9959 17.2529C96.6442 17.2529 95.7822 16.8633 95.2503 16.418C94.9051 16.1303 94.8056 15.5831 95.078 15.223C95.3653 14.8334 95.8561 14.7477 96.328 15.0505C96.8411 15.3695 97.4348 15.5344 98.0387 15.5258C98.7862 15.5258 99.1314 15.252 99.1314 14.8635C99.1314 14.5468 98.9007 14.3302 98.2977 14.1866C97.7797 14.072 97.7975 14.0865 97.2339 13.9423C96.0556 13.6401 95.1358 12.9777 95.1358 11.7399C95.1358 10.1853 96.3852 9.33594 98.067 9.33594C98.973 9.33594 99.9078 9.56637 100.41 9.98381C100.828 10.3295 100.799 10.9194 100.496 11.264C100.209 11.5801 99.7183 11.6241 99.2464 11.3786C98.8729 11.1916 98.3694 11.0619 97.9959 11.0619C97.2773 11.0619 96.9755 11.3358 96.9755 11.6809C96.9755 11.9836 97.1911 12.1851 97.8375 12.3287L98.8579 12.5592C100.297 12.9065 101 13.6117 101 14.7482Z" fill="#4B5563"/>
</g>
<defs>
<clipPath id="clip0_4393_128335">
<rect width="101" height="24" fill="white"/>
</clipPath>
</defs>
</svg>

<svg width="101" height="24" fill="none" xmlns="http://www.w3.org/2000/svg"><g clip-path="url(#a)"><path d="M23 12c0 6.628-5.149 12-11.5 12S0 18.628 0 12 5.148 0 11.5 0 23 5.372 23 12Z" fill="#4B5563"/><path d="M14.11 7.67c-.625 0-1.243.122-1.821.36l.082-.453s.553-2.43-1.714-2.577c-.18 0-.237.096-.26.223l-.444 2.449a4.786 4.786 0 0 0-1.755.357l.082-.452s.553-2.43-1.715-2.576c-.18 0-.237.097-.26.221l-1.213 6.693c-.057.304-.087.611-.092.92C4.966 15.68 7.16 18 9.89 18c2.73 0 4.982-2.317 5.02-5.165.009-.768-.175-1.287-.5-1.591-.438-.407-1.205-.326-1.573.176-.342.465-.29 1.175-.293 1.414a2.784 2.784 0 0 1-.562 1.646 2.729 2.729 0 0 1-.522-1.646c.019-1.489 1.194-2.7 2.622-2.7 1.427 0 2.573 1.21 2.555 2.7a2.791 2.791 0 0 1-.343 1.309c-.22.4-.534.739-.914.985-.106.063-.203.14-.289.23a1.456 1.456 0 0 0-.182.29 5.98 5.98 0 0 1-1.802 2.055c-.042.03-.118.089-.095.148.023.06.142.075.196.083.256.043.515.065.775.065 2.73 0 4.982-2.317 5.017-5.165.035-2.848-2.16-5.164-4.89-5.164Zm-6.744 5.165c.016-1.314.934-2.411 2.133-2.649l-.314 1.73a5.483 5.483 0 0 0-.091.92 5.245 5.245 0 0 0 .695 2.69c-1.366-.073-2.441-1.25-2.423-2.69Z" fill="#fff"/><path d="M35.769 14.26c-.157 1.757-1.408 2.995-3.405 2.995-1.466 0-2.602-.62-3.02-.907-.258-.173-.344-.36-.344-.677V7.798c0-.562.417-.993.963-.993.532 0 .963.431.963.993v1.9c.431-.187 1.12-.36 1.696-.36 1.899 0 2.98 1.153 3.147 2.934.045.662.045 1.327 0 1.989Zm-1.925-1.669c-.056-.89-.49-1.41-1.409-1.41-.632 0-1.265.23-1.51.39v3.395c.23.2.878.445 1.395.445.934 0 1.452-.533 1.524-1.469.03-.387.016-1.034.001-1.351h-.001ZM37.46 10.405c0-.576.345-1.022.95-1.022.545 0 .976.445.976 1.022v3.673c0 .864.56 1.339 1.38 1.339.496.008.983-.121 1.41-.375v-4.666c0-.547.4-.993.963-.993.531 0 .962.445.962.993v5.383c0 .331-.086.518-.345.677-.445.317-1.494.82-3.032.82-2.07 0-3.264-1.122-3.264-3.152v-3.7ZM49.015 9.338c.575 0 1.265.173 1.697.36v-1.9c0-.562.43-.993.962-.993.547 0 .963.431.963.993v7.888c0 .316-.086.503-.345.677-.402.287-1.552.89-3.019.89-1.997 0-3.247-1.238-3.406-2.994a15.39 15.39 0 0 1 0-1.987c.159-1.781 1.251-2.934 3.148-2.934Zm.302 6.074c.5 0 1.167-.245 1.395-.445v-3.395c-.245-.159-.878-.39-1.51-.39-.92 0-1.351.518-1.409 1.396-.028.465-.028.932 0 1.397.058.933.593 1.437 1.524 1.437ZM57.592 9.338c.575 0 1.264.173 1.696.36v-1.9c0-.562.431-.993.963-.993.547 0 .964.431.964.993v7.888c0 .316-.086.503-.346.677-.403.287-1.552.89-3.018.89-1.998 0-3.249-1.238-3.406-2.994a15.006 15.006 0 0 1 0-1.987c.157-1.781 1.25-2.934 3.147-2.934Zm.302 6.074c.503 0 1.167-.245 1.394-.445v-3.395c-.244-.159-.876-.39-1.508-.39-.921 0-1.352.518-1.41 1.396-.029.465-.029.932 0 1.397.058.933.59 1.437 1.524 1.437ZM62.655 10.793c-.317-.734.201-1.426.92-1.426.445 0 .805.246.992.75l1.58 4.087c.03.072.056.086.087.086.03 0 .056 0 .086-.085l1.495-4.089c.172-.474.532-.749.992-.749.747 0 1.235.72.92 1.44l-2.688 6.262c-.604 1.41-1.365 2.317-1.912 2.676-.216.145-.518.274-.79.274-.518 0-.964-.345-.964-.906 0-.332.159-.576.432-.78.431-.302.992-.849 1.322-1.77l-2.472-5.77ZM77.916 14.26c-.158 1.757-1.41 2.995-3.407 2.995-1.466 0-2.602-.62-3.018-.907-.259-.173-.345-.36-.345-.677V7.798c0-.562.417-.993.963-.993.531 0 .963.431.963.993v1.9c.431-.187 1.12-.36 1.696-.36 1.897 0 2.976 1.151 3.148 2.936a15.39 15.39 0 0 1 0 1.987Zm-1.927-1.669c-.055-.89-.488-1.41-1.408-1.41-.633 0-1.265.23-1.51.39v3.395c.23.2.877.445 1.395.445.935 0 1.452-.533 1.523-1.469.03-.387.015-1.034 0-1.351ZM82.909 17.254c-1.883 0-3.305-1.21-3.45-2.923a16.303 16.303 0 0 1 0-2.059c.145-1.726 1.567-2.936 3.45-2.936 1.897 0 3.291 1.21 3.435 2.936.044.68.044 1.364 0 2.044-.144 1.729-1.538 2.938-3.435 2.938Zm1.524-4.675c-.044-.82-.618-1.396-1.524-1.396s-1.466.575-1.539 1.396c-.027.479-.027.96 0 1.439.073.82.633 1.396 1.539 1.396.905 0 1.466-.576 1.524-1.396.028-.48.028-.962 0-1.442v.003ZM93.7 14.748c0 1.614-1.334 2.505-3.001 2.505-1.351 0-2.213-.39-2.746-.835-.344-.288-.444-.835-.172-1.195.287-.39.779-.475 1.25-.173a3.157 3.157 0 0 0 1.711.476c.748 0 1.092-.274 1.092-.662 0-.317-.23-.534-.833-.677-.518-.115-.5-.1-1.064-.245-1.178-.302-2.098-.964-2.098-2.202 0-1.555 1.25-2.404 2.932-2.404.905 0 1.839.23 2.342.648.417.345.39.935.086 1.28-.287.316-.778.36-1.25.115-.374-.187-.877-.317-1.25-.317-.72 0-1.02.274-1.02.619 0 .303.215.504.86.648l1.022.23c1.435.348 2.14 1.053 2.14 2.19ZM101 14.748c0 1.614-1.337 2.505-3.004 2.505-1.352 0-2.214-.39-2.746-.835-.345-.288-.444-.835-.172-1.195.287-.39.778-.475 1.25-.173a3.155 3.155 0 0 0 1.71.476c.748 0 1.093-.274 1.093-.662 0-.317-.23-.534-.833-.677-.518-.115-.5-.1-1.064-.245-1.178-.302-2.098-.964-2.098-2.202 0-1.555 1.25-2.404 2.931-2.404.906 0 1.84.23 2.343.648.418.345.389.935.086 1.28-.287.316-.778.36-1.25.115-.373-.187-.877-.317-1.25-.317-.719 0-1.02.274-1.02.619 0 .303.215.504.862.648l1.02.23c1.439.348 2.142 1.053 2.142 2.19Z" fill="#4B5563"/></g><defs><clipPath id="a"><path fill="#fff" d="M0 0h101v24H0z"/></clipPath></defs></svg>
